!!!OTL: Hongyanyan de qizhi
!!!ARE: Asia, China,ÿQinghai Minhe Guanding
!! I, 220
!!!SCT: C1852
!!!YEM: Copyright 1995, estate of Helmut Schaffrath.
**kern
*ICvox
*Ivox
*M3/4
*k[f#c#]
*D:
{4a
4b
8a
8f#
=1
4a
[2b
=2
2b]
4f#}
=3
{4a
4b
8b
8dd
=4
8a
8f#
4f#
4r}
=5
{4f#
4a
8b
8dd
=6
4b
8a
16f#
16a
8a
8f#
=7
4e
8d
8B
4d
=8
[2.e
=9
2e]
4f#}
=10
{8e
8f#
8e
8d
8B
8A
=11
4B
2r}
==
!!!AGN: Xiaodiao, Yanxiqu
!! Hui
!!!ONB: ESAC (Essen Associative Code) Database: SENGANSU
!!!AMT: simple triple
!!!AIN: vox
!!!EED: Helmut Schaffrath
!!!EEV: 1.0
*-
!!!ONB: Tied note syntax fixed by Craig Sapp, 2004/05/03/
